X: 79
T:Primrose Lass, The
M:C|
L:1/8
R:reel
D:Solas: Sunny Spells and Scattered Showers
Z:Devin McCabe
K:G
ga|:~b3a ~g3e|dB~B2 dega|~b3a ~g3e|1degb a2gb:|2dBGA BA~A2:|
!|:B~d3 edgd|edgd egdc|B~d3 edge|1dBGA BAAc:|2 dBGB A2ga||
